public/images/amazon-luna-logo.svg

<?xml version="1.0" encoding="UTF-8" standalone="no"?>
<svg
   width="100%"
   height="100%"
   viewBox="0 0 256 256"
   version="1.1"
   xml:space="preserve"
   style="fill-rule:evenodd;clip-rule:evenodd;stroke-linejoin:round;stroke-miterlimit:2;"
   id="svg1"
   sodipodi:docname="amazon-luna-logo.svg"
   inkscape:export-filename="amazon-luna-logo.svg"
   inkscape:export-xdpi="96"
   inkscape:export-ydpi="96"
   inkscape:version="1.3.2 (091e20e, 2023-11-25)"
   xmlns:inkscape="http://www.inkscape.org/namespaces/inkscape"
   xmlns:sodipodi="http://sodipodi.sourceforge.net/DTD/sodipodi-0.dtd"
   xmlns="http://www.w3.org/2000/svg"
   xmlns:svg="http://www.w3.org/2000/svg"><defs
   id="defs1" /><sodipodi:namedview
   id="namedview1"
   pagecolor="#ffffff"
   bordercolor="#000000"
   borderopacity="0.25"
   inkscape:showpageshadow="2"
   inkscape:pageopacity="0.0"
   inkscape:pagecheckerboard="0"
   inkscape:deskcolor="#d1d1d1"
   showgrid="false"
   inkscape:zoom="2.5664062"
   inkscape:cx="128"
   inkscape:cy="127.80518"
   inkscape:window-width="1264"
   inkscape:window-height="919"
   inkscape:window-x="485"
   inkscape:window-y="170"
   inkscape:window-maximized="0"
   inkscape:current-layer="svg1" />
    
<g
   id="f9146ffff"
   transform="matrix(1.4903919,0,0,1.5235234,-134.39254,-0.37545034)"
   style="fill:#000000;fill-opacity:1"
   inkscape:label="00000000"><path
     fill="#9146ff"
     opacity="1"
     d="m 165.3,1.16 c 7.05,-1.84 14.89,-0.53 20.84,3.71 7.3,5.06 11.61,14.21 10.49,23.08 -1.21,12.11 -1.48,25.43 5.25,36.12 4.2,7.16 8.31,14.38 12.48,21.56 5.36,9.49 14.47,16.74 24.87,19.96 8.44,2.53 15.69,8.75 19.45,16.72 5.25,10.75 3.83,24.38 -3.63,33.76 -8.12,10.67 -23.2,14.98 -35.81,10.55 -6.62,-2.04 -11.35,-7.46 -17.62,-10.19 -18.1,-9 -38.94,-9.28 -58.65,-7.62 -10.59,0.79 -20.63,4.49 -30.7,7.58 -7.34,2.06 -15.73,-1.55 -19.4,-8.2 -4.85,-8.19 -1.51,-20 7.16,-24.14 7.94,-4.24 13.34,-11.64 17.85,-19.2 8.22,-14.14 16.34,-28.33 24.53,-42.48 4.74,-8.25 5.07,-18.08 4.84,-27.35 -0.03,-4.68 -1.39,-9.37 -0.34,-14.02 1.55,-9.46 9.1,-17.56 18.39,-19.84 m 0.14,58.47 c -5.47,2.08 -8.56,7.46 -11.82,11.97 -8.07,12.05 -15.12,24.79 -21.06,38.02 -3.35,7.69 0.1,17.42 7.44,21.4 4.87,2.67 10.6,2.43 15.97,3.01 13.98,0.76 28.08,0.75 41.98,-1.08 7.41,-1.01 13.16,-7.64 14.08,-14.9 0.75,-4.78 -1.46,-9.31 -3.58,-13.45 -3.82,-8.26 -8.46,-16.11 -13.01,-23.98 -3.65,-6.18 -7.42,-12.42 -12.49,-17.56 -4.46,-4.58 -11.65,-5.33 -17.51,-3.43 z"
     id="path1-2"
     style="fill:#000000;fill-opacity:1" /></g></svg>

<?xml version="1.0" encoding="UTF-8" standalone="no"?>
<!DOCTYPE svg PUBLIC "-//W3C//DTD SVG 1.1//EN" "http://www.w3.org/Graphics/SVG/1.1/DTD/svg11.dtd">
<svg width="100%" height="100%" viewBox="0 0 256 256" version="1.1" xmlns="http://www.w3.org/2000/svg" xmlns:xlink="http://www.w3.org/1999/xlink" xml:space="preserve" xmlns:serif="http://www.serif.com/" style="fill-rule:evenodd;clip-rule:evenodd;stroke-linejoin:round;stroke-miterlimit:2;">
    <g id="path1-2" transform="matrix(1.495527,0,0,1.523523,-135.736917,-0.37545)">
        <g id="_00000000" serif:id="00000000">
            <path id="path1-21" serif:id="path1-2" d="M165.3,1.16C172.35,-0.68 180.19,0.63 186.14,4.87C193.44,9.93 197.75,19.08 196.63,27.95C195.42,40.06 195.15,53.38 201.88,64.07C206.08,71.23 210.19,78.45 214.36,85.63C219.72,95.12 228.83,102.37 239.23,105.59C247.67,108.12 254.92,114.34 258.68,122.31C263.93,133.06 262.51,146.69 255.05,156.07C246.93,166.74 231.85,171.05 219.24,166.62C212.62,164.58 207.89,159.16 201.62,156.43C183.52,147.43 162.68,147.15 142.97,148.81C132.38,149.6 122.34,153.3 112.27,156.39C104.93,158.45 96.54,154.84 92.87,148.19C88.02,140 91.36,128.19 100.03,124.05C107.97,119.81 113.37,112.41 117.88,104.85C126.1,90.71 134.22,76.52 142.41,62.37C147.15,54.12 147.48,44.29 147.25,35.02C147.22,30.34 145.86,25.65 146.91,21C148.46,11.54 156.01,3.44 165.3,1.16M165.44,59.63C159.97,61.71 156.88,67.09 153.62,71.6C145.55,83.65 138.5,96.39 132.56,109.62C129.21,117.31 132.66,127.04 140,131.02C144.87,133.69 150.6,133.45 155.97,134.03C169.95,134.79 184.05,134.78 197.95,132.95C205.36,131.94 211.11,125.31 212.03,118.05C212.78,113.27 210.57,108.74 208.45,104.6C204.63,96.34 199.99,88.49 195.44,80.62C191.79,74.44 188.02,68.2 182.95,63.06C178.49,58.48 171.3,57.73 165.44,59.63Z"/>
        </g>
    </g>
</svg>
